Dominus_Funeral/symbolic/status/weather-few-clouds-symbolic.svg

<?xml version="1.0" encoding="UTF-8" standalone="no"?>
<svg
   xmlns:dc="http://purl.org/dc/elements/1.1/"
   xmlns:cc="http://creativecommons.org/ns#"
   xmlns:rdf="http://www.w3.org/1999/02/22-rdf-syntax-ns#"
   xmlns:svg="http://www.w3.org/2000/svg"
   xmlns="http://www.w3.org/2000/svg"
   xmlns:sodipodi="http://sodipodi.sourceforge.net/DTD/sodipodi-0.dtd"
   xmlns:inkscape="http://www.inkscape.org/namespaces/inkscape"
   width="24"
   height="24"
   version="1.1"
   id="svg4"
   sodipodi:docname="weather-few-clouds-symbolic.svg"
   inkscape:version="0.92.4 (5da689c313, 2019-01-14)">
  <metadata
     id="metadata10">
    <rdf:RDF>
      <cc:Work
         rdf:about="">
        <dc:format>image/svg+xml</dc:format>
        <dc:type
           rdf:resource="http://purl.org/dc/dcmitype/StillImage" />
        <dc:title></dc:title>
      </cc:Work>
    </rdf:RDF>
  </metadata>
  <defs
     id="defs8" />
  <sodipodi:namedview
     pagecolor="#ffffff"
     bordercolor="#666666"
     borderopacity="1"
     objecttolerance="10"
     gridtolerance="10"
     guidetolerance="10"
     inkscape:pageopacity="0"
     inkscape:pageshadow="2"
     inkscape:window-width="1366"
     inkscape:window-height="711"
     id="namedview6"
     showgrid="false"
     inkscape:zoom="20.416667"
     inkscape:cx="12"
     inkscape:cy="12"
     inkscape:window-x="0"
     inkscape:window-y="25"
     inkscape:window-maximized="1"
     inkscape:current-layer="svg4" />
  <path
     style="fill:#808080"
     d="m 11.662109,1.9882812 c -0.179,0 -0.318359,0.1608438 -0.318359,0.3398438 v 1.9902344 c 0,0.2 0.140359,0.3378906 0.318359,0.3378906 h 0.675782 c 0.179,0 0.318359,-0.1403594 0.318359,-0.3183594 V 2.328125 c 0,-0.199 -0.140359,-0.3398437 -0.318359,-0.3398438 z M 5.3925781,4.5761719 A 0.338,0.338 0 0 0 5.1542969,4.6953125 L 4.6953125,5.1542969 a 0.338,0.338 0 0 0 0,0.4765625 l 1.3945313,1.4140625 a 0.338,0.338 0 0 0 0.4765624,0 L 7.0449219,6.5664062 a 0.338,0.338 0 0 0 0,-0.4570312 L 5.6503906,4.6953125 A 0.318,0.318 0 0 0 5.3925781,4.5957031 Z m 13.2148439,0 a 0.318,0.318 0 0 0 -0.238281,0.1191406 l -1.414063,1.3945313 a 0.338,0.338 0 0 0 0,0.4765624 l 0.478516,0.4785157 a 0.338,0.338 0 0 0 0.457031,0 l 1.414063,-1.3945313 a 0.338,0.338 0 0 0 0,-0.4960937 L 18.845703,4.6953125 A 0.338,0.338 0 0 0 18.607422,4.5957031 Z M 12,6.9570312 A 5.044,5.044 0 0 0 6.9570312,12 a 5.044,5.044 0 0 0 4.2734378,4.976562 2.667,2.667 0 0 1 0.507812,-0.1875 4,4 0 0 1 -0.002,-0.08594 4,4 0 0 1 4,-4 4,4 0 0 1 1.21875,0.195313 A 5.044,5.044 0 0 0 17.042969,12 5.044,5.044 0 0 0 12,6.9570312 Z M 2.328125,11.34375 c -0.199,0 -0.3398437,0.140359 -0.3398438,0.318359 v 0.675782 c 0,0.179 0.1608438,0.318359 0.3398438,0.318359 h 1.9902344 c 0.2,0 0.3378906,-0.140359 0.3378906,-0.318359 V 11.662109 A 0.314,0.314 0 0 0 4.3378906,11.34375 Z m 17.333984,0 a 0.314,0.314 0 0 0 -0.318359,0.318359 v 0.675782 c 0,0.179 0.140359,0.318359 0.318359,0.318359 h 2.009766 c 0.199,0 0.339844,-0.140359 0.339844,-0.318359 v -0.675782 c 0,-0.179 -0.160844,-0.318359 -0.339844,-0.318359 z m -3.904297,2.515625 v 0.002 a 3.056,3.022 0 0 0 -3.054687,3.021484 3.056,3.022 0 0 0 0.06445,0.607422 1.834,1.813 0 0 0 -0.06445,-0.0039 1.834,1.813 0 0 0 -1.833984,1.814453 1.834,1.813 0 0 0 1.833984,1.8125 h 5.5 a 2.445,2.418 0 0 0 2.445313,-2.417969 2.445,2.418 0 0 0 -1.882813,-2.349609 3.056,3.022 0 0 0 -3.007813,-2.486328 z m -9.429687,2.996094 a 0.338,0.338 0 0 0 -0.21875,0.09961 L 4.6953125,18.34961 a 0.338,0.338 0 0 0 0,0.496094 l 0.4589844,0.458985 a 0.338,0.338 0 0 0 0.4765625,0 l 1.4140625,-1.394532 a 0.338,0.338 0 0 0 0,-0.476562 L 6.5664062,16.955078 a 0.338,0.338 0 0 0 -0.21875,-0.09961 z"
     id="path828"
     inkscape:connector-curvature="0" />
</svg>

<?xml version="1.0" encoding="UTF-8" standalone="no"?>
<svg
   xmlns:dc="http://purl.org/dc/elements/1.1/"
   xmlns:cc="http://creativecommons.org/ns#"
   xmlns:rdf="http://www.w3.org/1999/02/22-rdf-syntax-ns#"
   xmlns:svg="http://www.w3.org/2000/svg"
   xmlns="http://www.w3.org/2000/svg"
   xmlns:sodipodi="http://sodipodi.sourceforge.net/DTD/sodipodi-0.dtd"
   xmlns:inkscape="http://www.inkscape.org/namespaces/inkscape"
   width="24"
   height="24"
   version="1.1"
   id="svg4"
   sodipodi:docname="weather-few-clouds-symbolic.svg"
   inkscape:version="0.92.4 (5da689c313, 2019-01-14)">
  <metadata
     id="metadata10">
    <rdf:RDF>
      <cc:Work
         rdf:about="">
        <dc:format>image/svg+xml</dc:format>
        <dc:type
           rdf:resource="http://purl.org/dc/dcmitype/StillImage" />
        <dc:title></dc:title>
      </cc:Work>
    </rdf:RDF>
  </metadata>
  <defs
     id="defs8" />
  <sodipodi:namedview
     pagecolor="#ffffff"
     bordercolor="#666666"
     borderopacity="1"
     objecttolerance="10"
     gridtolerance="10"
     guidetolerance="10"
     inkscape:pageopacity="0"
     inkscape:pageshadow="2"
     inkscape:window-width="1366"
     inkscape:window-height="717"
     id="namedview6"
     showgrid="false"
     inkscape:zoom="21.708333"
     inkscape:cx="12"
     inkscape:cy="12"
     inkscape:window-x="0"
     inkscape:window-y="25"
     inkscape:window-maximized="1"
     inkscape:current-layer="svg4" />
  <path
     style="fill:#808080"
     d="M 11.662109 1.9882812 C 11.483109 1.9882812 11.34375 2.149125 11.34375 2.328125 L 11.34375 4.3183594 C 11.34375 4.5183594 11.484109 4.65625 11.662109 4.65625 L 12.337891 4.65625 C 12.516891 4.65625 12.65625 4.5158906 12.65625 4.3378906 L 12.65625 2.328125 C 12.65625 2.129125 12.515891 1.9882813 12.337891 1.9882812 L 11.662109 1.9882812 z M 5.3925781 4.5761719 A 0.338 0.338 0 0 0 5.1542969 4.6953125 L 4.6953125 5.1542969 A 0.338 0.338 0 0 0 4.6953125 5.6308594 L 6.0898438 7.0449219 A 0.338 0.338 0 0 0 6.5664062 7.0449219 L 7.0449219 6.5664062 A 0.338 0.338 0 0 0 7.0449219 6.109375 L 5.6503906 4.6953125 A 0.318 0.318 0 0 0 5.3925781 4.5957031 L 5.3925781 4.5761719 z M 18.607422 4.5761719 A 0.318 0.318 0 0 0 18.369141 4.6953125 L 16.955078 6.0898438 A 0.338 0.338 0 0 0 16.955078 6.5664062 L 17.433594 7.0449219 A 0.338 0.338 0 0 0 17.890625 7.0449219 L 19.304688 5.6503906 A 0.338 0.338 0 0 0 19.304688 5.1542969 L 18.845703 4.6953125 A 0.338 0.338 0 0 0 18.607422 4.5957031 L 18.607422 4.5761719 z M 12 6.9570312 A 5.044 5.044 0 0 0 6.9570312 12 A 5.044 5.044 0 0 0 11.230469 16.976562 A 2.667 2.667 0 0 1 11.738281 16.789062 A 4 4 0 0 1 11.736328 16.703125 A 4 4 0 0 1 15.736328 12.703125 A 4 4 0 0 1 16.955078 12.898438 A 5.044 5.044 0 0 0 17.042969 12 A 5.044 5.044 0 0 0 12 6.9570312 z M 2.328125 11.34375 C 2.129125 11.34375 1.9882813 11.484109 1.9882812 11.662109 L 1.9882812 12.337891 C 1.9882812 12.516891 2.149125 12.65625 2.328125 12.65625 L 4.3183594 12.65625 C 4.5183594 12.65625 4.65625 12.515891 4.65625 12.337891 L 4.65625 11.662109 A 0.314 0.314 0 0 0 4.3378906 11.34375 L 2.328125 11.34375 z M 19.662109 11.34375 A 0.314 0.314 0 0 0 19.34375 11.662109 L 19.34375 12.337891 C 19.34375 12.516891 19.484109 12.65625 19.662109 12.65625 L 21.671875 12.65625 C 21.870875 12.65625 22.011719 12.515891 22.011719 12.337891 L 22.011719 11.662109 C 22.011719 11.483109 21.850875 11.34375 21.671875 11.34375 L 19.662109 11.34375 z M 15.757812 13.859375 L 15.757812 13.861328 A 3.056 3.022 0 0 0 12.703125 16.882812 A 3.056 3.022 0 0 0 12.767578 17.490234 A 1.834 1.813 0 0 0 12.703125 17.486328 A 1.834 1.813 0 0 0 10.869141 19.300781 A 1.834 1.813 0 0 0 12.703125 21.113281 L 18.203125 21.113281 A 2.445 2.418 0 0 0 20.648438 18.695312 A 2.445 2.418 0 0 0 18.765625 16.345703 A 3.056 3.022 0 0 0 15.757812 13.859375 z M 6.328125 16.855469 A 0.338 0.338 0 0 0 6.109375 16.955078 L 4.6953125 18.349609 A 0.338 0.338 0 0 0 4.6953125 18.845703 L 5.1542969 19.304688 A 0.338 0.338 0 0 0 5.6308594 19.304688 L 7.0449219 17.910156 A 0.338 0.338 0 0 0 7.0449219 17.433594 L 6.5664062 16.955078 A 0.338 0.338 0 0 0 6.3476562 16.855469 L 6.328125 16.855469 z "
     id="path828" />
</svg>
